assets/arrows_horizontal.svg

<svg xmlns="http://www.w3.org/2000/svg" viewBox="0 0 80 80" enable-background="new 0 0 80 80"><path d="m64.1 24l1.2 11-15.1-.3v10.3l15.1-.3-1.2 11.3 15.9-15.9-15.9-16.1m-34.3 10.8l-15.1.3 1.2-11.1-15.9 15.8 15.9 16-1.2-11.1 15.1.3v-10.2"/></svg>

<?xml version="1.0" encoding="utf-8"?>
<!-- Generator: Adobe Illustrator 18.1.0, SVG Export Plug-In . SVG Version: 6.00 Build 0)  -->
<!DOCTYPE svg PUBLIC "-//W3C//DTD SVG 1.1//EN" "http://www.w3.org/Graphics/SVG/1.1/DTD/svg11.dtd">
<svg version="1.1" id="Layer_1" xmlns="http://www.w3.org/2000/svg" xmlns:xlink="http://www.w3.org/1999/xlink" x="0px" y="0px"
	 viewBox="0 0 80 80" enable-background="new 0 0 80 80" xml:space="preserve">
<path d="M64.1,24l1.2,11l-15.1-0.3V45l15.1-0.3L64.1,56L80,40.1L64.1,24z M29.8,34.8l-15.1,0.3L15.9,24L0,39.8l15.9,16l-1.2-11.1
	l15.1,0.3V34.8z"/>
</svg>
